kiosk-igrinskij/images/db8d00ed880fd180e31b91f893ee55c2.svg

<svg fill="none" height="20" viewBox="0 0 20 20" width="20" xmlns="http://www.w3.org/2000/svg"><path clip-rule="evenodd" d="m9.94336 3.50004c.86304-.00493 1.77484.54588 2.72234 1.97115.9318 1.40175 1.6875 3.35483 2.2766 5.42551.5831 2.0497.9757 4.1145 1.2226 5.6762.123.7783.209 1.4259.2641 1.8768.0275.2254.0472.4013.0599.5195.0064.059.011.1037.0139.1328l.0032.0319.0007.007.0001.0013c0-.0001 0-.0004 1.4933-.1422 1.4932-.1418 1.4932-.1422 1.4932-.1426l-.0001-.0011-.0004-.0035-.0011-.0114-.0041-.0411c-.0036-.0354-.0088-.0864-.0159-.1521-.0141-.1314-.0355-.3215-.0648-.5619-.0587-.4806-.1495-1.1637-.2788-1.982-.0055-.0346-.0111-.0695-.0167-.1046-.0121.0002-.0242.0003-.0364.0003-1.0631 0-1.925-.8773-1.925-1.9596 0-.8314.5087-1.542 1.2266-1.8266-.1615-.6985-.3438-1.4176-.5488-2.138-.6213-2.18391-1.479-4.48312-2.6638-6.26542-1.1692-1.75877-2.8773-3.323758-5.23775-3.310294-2.35512.013434-4.04909 1.585564-5.20548 3.349264-1.17134 1.7865-2.01161 4.08368-2.61636 6.26345-.18783.677-.35557 1.3526-.50495 2.0109.73049.2782 1.25054.9952 1.25054 1.8359 0 1.0822-.86185 1.9596-1.925 1.9596-.01451 0-.028982-.0002-.043415-.0005-.010774.0697-.021278.1385-.031517.2063-.123138.8155-.208711 1.4961-.263697 1.9749-.027506.2395-.047396.4289-.060532.5598-.006569.0654-.011452.1163-.014756.1515l-.003787.041-.001031.0114-.000305.0035-.0001.0011c-.000036.0004-.000065.0007 1.4942.1318 1.49426.1311 1.49424.1313 1.49423.1314l.00011-.0012.00063-.007.00293-.0317c.00272-.029.00698-.0734.01288-.1322.01181-.1176.03018-.2927.05594-.5171.05156-.449.13259-1.094.24966-1.8693.2349-1.5557.61151-3.6134 1.17878-5.6581.57307-2.06557 1.31354-4.01608 2.23437-5.42052.93578-1.42723 1.8454-1.98929 2.71377-1.99424z" fill="#f1e9dd" fill-rule="evenodd"/></svg>

<svg width="20" height="20" viewBox="0 0 20 20" fill="none" xmlns="http://www.w3.org/2000/svg">
<path fill-rule="evenodd" clip-rule="evenodd" d="M9.94336 3.50004C10.8064 3.49511 11.7182 4.04592 12.6657 5.47119C13.5975 6.87294 14.3532 8.82602 14.9423 10.8967C15.5254 12.9464 15.918 15.0112 16.1649 16.5729C16.2879 17.3512 16.3739 17.9988 16.429 18.4497C16.4565 18.6751 16.4762 18.851 16.4889 18.9692C16.4953 19.0282 16.4999 19.0729 16.5028 19.102L16.506 19.1339L16.5067 19.1409L16.5068 19.1422L16.5068 19.1422C16.5068 19.1421 16.5068 19.1418 18.0001 19C19.4933 18.8582 19.4933 18.8578 19.4933 18.8574L19.4932 18.8563L19.4928 18.8528L19.4917 18.8414L19.4876 18.8003C19.484 18.7649 19.4788 18.7139 19.4717 18.6482C19.4576 18.5168 19.4362 18.3267 19.4069 18.0863C19.3482 17.6057 19.2574 16.9226 19.1281 16.1043C19.1226 16.0697 19.117 16.0348 19.1114 15.9997C19.0993 15.9999 19.0872 16 19.075 16C18.0119 16 17.15 15.1227 17.15 14.0404C17.15 13.209 17.6587 12.4984 18.3766 12.2138C18.2151 11.5153 18.0328 10.7962 17.8278 10.0758C17.2065 7.89189 16.3488 5.59268 15.164 3.81038C13.9948 2.05161 12.2867 0.486622 9.92625 0.500086C7.57113 0.51352 5.87716 2.08565 4.72077 3.84935C3.54943 5.63585 2.70916 7.93303 2.10441 10.1128C1.91658 10.7898 1.74884 11.4654 1.59946 12.1237C2.32995 12.4019 2.85 13.1189 2.85 13.9596C2.85 15.0418 1.98815 15.9192 0.925 15.9192C0.91049 15.9192 0.896018 15.919 0.881585 15.9187C0.870811 15.9884 0.860307 16.0572 0.850068 16.125C0.72693 16.9405 0.641357 17.6211 0.586371 18.0999C0.558865 18.3394 0.538975 18.5288 0.525839 18.6597C0.51927 18.7251 0.514387 18.776 0.511083 18.8112L0.507296 18.8522L0.506265 18.8636L0.50596 18.8671L0.50586 18.8682C0.505824 18.8686 0.505795 18.8689 2.00006 19C3.49432 19.1311 3.4943 19.1313 3.49429 19.1314L3.49429 19.1314L3.4944 19.1302L3.49503 19.1232L3.49796 19.0915C3.50068 19.0625 3.50494 19.0181 3.51084 18.9593C3.52265 18.8417 3.54102 18.6666 3.56678 18.4422C3.61834 17.9932 3.69937 17.3482 3.81644 16.5729C4.05134 15.0172 4.42795 12.9595 4.99522 10.9148C5.56829 8.84923 6.30876 6.89872 7.22959 5.49428C8.16537 4.06705 9.07499 3.50499 9.94336 3.50004Z" fill="#F1E9DD"/>
</svg>
